packages/foundations/assets/icons/functional/images/transportation/handcart_24_inverted.svg

<svg width="24" height="24" viewBox="0 0 24 24" fill="none" xmlns="http://www.w3.org/2000/svg">
<g clip-path="url(#clip0_2214_7299)">
<path fill-rule="evenodd" clip-rule="evenodd" d="M4.98708 15.925C6.09165 15.925 6.98708 16.8204 6.98708 17.925C6.98708 19.0296 6.09165 19.925 4.98708 19.925C3.88252 19.925 2.98708 19.0296 2.98708 17.925C2.98708 16.8204 3.88252 15.925 4.98708 15.925ZM14.9871 15.925C16.0917 15.925 16.9871 16.8204 16.9871 17.925C16.9871 19.0296 16.0917 19.925 14.9871 19.925C13.8825 19.925 12.9871 19.0296 12.9871 17.925C12.9871 16.8204 13.8825 15.925 14.9871 15.925ZM11.3672 16.6647C11.7871 16.8747 11.9573 17.3853 11.7473 17.8051C11.5536 18.1927 11.1036 18.3676 10.7053 18.227C10.4671 18.1072 10.2407 18.0439 10.0262 18.0372C9.81167 18.0305 9.59201 18.0799 9.36722 18.1853C8.94733 18.3952 8.43676 18.225 8.22682 17.8051C8.01688 17.3853 8.18707 16.8747 8.60695 16.6647C9.47577 16.2303 10.4984 16.2303 11.3672 16.6647ZM18.0127 4.07501C19.0771 4.07501 19.9959 4.80038 20.253 5.81874L21.8496 14.7764C21.9281 15.2184 21.6497 15.6413 21.2209 15.7492L18.7997 16.7143C18.3638 16.8885 17.8692 16.6763 17.695 16.2404C17.5342 15.838 17.695 15.3306 18.169 15.1357L20.0521 14.382L18.6142 6.27912C18.5682 6.01989 18.3509 5.77501 18.0127 5.77501C17.5433 5.77501 17.1627 5.39445 17.1627 4.92501C17.1627 4.45557 17.5433 4.07501 18.0127 4.07501ZM16.9871 8.92501C17.4565 8.92501 17.8371 9.30557 17.8371 9.77501C17.8371 10.2083 17.4779 10.625 16.9871 10.625V12.425C16.9871 13.6732 15.6829 14.925 14.4871 14.925H5.48708C4.29128 14.925 2.98708 13.6732 2.98708 12.425V10.625C2.52228 10.625 2.13708 10.2445 2.13708 9.77501C2.13708 9.34168 2.48995 8.92501 2.98708 8.92501H16.9871Z" fill="#1A1C1F"/>
</g>
<defs>
<clipPath id="clip0_2214_7299">
<rect width="24" height="24" fill="white"/>
</clipPath>
</defs>
</svg>

<svg xmlns="http://www.w3.org/2000/svg" width="24" height="24" fill="none"><g clip-path="url(#a)"><path fill="#1A1C1F" fill-rule="evenodd" d="M4.987 15.925a2 2 0 1 1 0 4 2 2 0 0 1 0-4m10 0a2 2 0 1 1 0 4 2 2 0 0 1 0-4m-3.62.74a.85.85 0 0 1-.662 1.562 1.6 1.6 0 0 0-.679-.19 1.44 1.44 0 0 0-.659.148.85.85 0 0 1-.76-1.52 3.09 3.09 0 0 1 2.76 0m6.646-12.59c1.064 0 1.983.725 2.24 1.744l1.597 8.957a.85.85 0 0 1-.63.973l-2.42.965a.85.85 0 1 1-.631-1.578l1.883-.754-1.438-8.103a.6.6 0 0 0-.601-.504.85.85 0 0 1 0-1.7m-1.026 4.85c.47 0 .85.38.85.85a.86.86 0 0 1-.85.85v1.8c0 1.248-1.304 2.5-2.5 2.5h-9c-1.196 0-2.5-1.252-2.5-2.5v-1.8a.853.853 0 0 1-.85-.85c0-.433.353-.85.85-.85z" clip-rule="evenodd"/></g><defs><clipPath id="a"><path fill="#fff" d="M0 0h24v24H0z"/></clipPath></defs></svg>
